X:1
T:Kum ba Yah
T:Kum ba Yah
T:African Tune
T:Public Domain Courtesy of the Cyber Hymnal™
C:African Tune
Z:Public Domain
Z:Courtesy of the Cyber Hymnal™
%%score 1 2
L:1/8
Q:1/4=57
M:3/4
K:D
V:1 treble 
V:2 bass 
V:1
 [A,D][DF] | [FA]>[FA] [FA]2 [GB][GB] | [FA]4 [A,D][DF] | [FA]>[FA] [FA]2 [EG][DF] | %4
 [CE]4 [A,D][DF] | [FA]>[FA] [FA]2 [GB][GB] | [FA]4 [DG]2 | [DF]/-[DF]/4[A,D]3/2[CE][CE] | %8
 [A,D]4 |: [A,D][DF] | [FA]<[FA] [FA]2 [GB][GB] | [FA]4 [A,D][DF] | [FA]<[FA] [FA]2 [EG][DF] | %13
 [CE]4 [A,D][DF] | [FA]<[FA] [FA]2 [GB][GB] | [FA]4 [DG]2 | [DF]/-[DF]/4[A,D]3/2[CE][CE] | %17
 [A,D]4"^Play 4 times" :| [A,D][DF] | [FA]>[FA] [FA]2 [GB][GB] | [FA]4 [A,D][DF] | %21
 [FA]>[FA] [FA]2 [EG][DF] | [CE]4 [A,D][DF] | [FA]>[FA] [FA]2 [GB][GB] | [FA]4 [DG]2 | %25
 [DF]/-[DF]/4[A,D]3/2[CE][CE] | [A,D]6 |] %27
V:2
 [D,F,][D,A,] | [D,D]>[D,D] [D,D]2 [G,D][G,D] | [D,D]4 [D,F,][D,A,] | %3
 [D,D]>[D,D] [D,D]2 [D,B,][D,A,] | [A,,G,]4 [D,F,][D,A,] | [D,D]>[D,D] [D,D]2 [G,D][G,D] | %6
 [D,D]4 [G,,B,]2 | [A,,A,]/-[A,,A,]/4[A,,F,]3/2[A,,G,][A,,G,] | [D,F,]4 |: [D,F,][D,A,] | %10
 [D,D]<[D,D] [D,D]2 [G,D][G,D] | [D,D]4 [D,F,][D,A,] | [D,D]<[D,D] [D,D]2 [D,B,][D,A,] | %13
 [A,,G,]4 [D,F,][D,A,] | [D,D]<[D,D] [D,D]2 [G,D][G,D] | [D,D]4 [G,,B,]2 | %16
 [A,,A,]/-[A,,A,]/4[A,,F,]3/2[A,,G,][A,,G,] | [D,F,]4"^Play 4 times" :| [D,F,][D,A,] | %19
 [D,D]>[D,D] [D,D]2 [G,D][G,D] | [D,D]4 [D,F,][D,A,] | [D,D]>[D,D] [D,D]2 [D,B,][D,A,] | %22
 [A,,G,]4 [D,F,][D,A,] | [D,D]>[D,D] [D,D]2 [G,D][G,D] | [D,D]4 [G,,B,]2 | %25
 [A,,A,]/-[A,,A,]/4[A,,F,]3/2[A,,G,][A,,G,] | [D,F,]6 |] %27

